icons/podfriend.svg

<svg width="32" height="32" viewBox="0 0 32 32" fill="none" xmlns="http://www.w3.org/2000/svg">
<path d="M3.36627 28.6337C0.910867 26.1783 0 22.1783 0 16C0 9.82167 0.910867 5.82167 3.36627 3.36627C5.82167 0.910867 9.82167 0 16 0C22.1783 0 26.1783 0.910867 28.6337 3.36627C31.0891 5.82167 32 9.82167 32 16C32 22.1783 31.0891 26.1783 28.6337 28.6337C26.1783 31.0891 22.1783 32 16 32C9.82167 32 5.82167 31.0891 3.36627 28.6337Z" fill="#00A3FE"/>
<mask id="mask0_29_436" style="mask-type:alpha" maskUnits="userSpaceOnUse" x="0" y="0" width="32" height="32">
<path d="M3.36627 28.6337C0.910867 26.1783 0 22.1783 0 16C0 9.82167 0.910867 5.82167 3.36627 3.36627C5.82167 0.910867 9.82167 0 16 0C22.1783 0 26.1783 0.910867 28.6337 3.36627C31.0891 5.82167 32 9.82167 32 16C32 22.1783 31.0891 26.1783 28.6337 28.6337C26.1783 31.0891 22.1783 32 16 32C9.82167 32 5.82167 31.0891 3.36627 28.6337Z" fill="#00A3FE"/>
</mask>
<g mask="url(#mask0_29_436)">
<path d="M6.72211 19.3799H25.2779C25.2779 19.3799 24.3428 25.557 16 25.557C7.65728 25.557 6.72211 19.3799 6.72211 19.3799Z" fill="#FF00B7"/>
<path d="M10.5366 24.3511C9.58563 23.8964 8.75166 23.2295 8.09889 22.4017C7.44611 21.574 6.99194 20.6076 6.77132 19.5768C8.19869 19.4948 9.62606 19.4374 11.0534 19.4046C12.0624 19.3799 13.2929 19.1831 14.2773 19.4046C13.2683 19.9214 12.3578 20.3151 11.6441 21.2503C11.2979 21.6971 11.0239 22.1953 10.8319 22.7269C10.7581 22.8992 10.3644 24.2527 10.5366 24.3511ZM15.8031 22.8745C15.7785 23.0714 15.7785 23.2929 15.9508 23.3913C16.0738 23.4406 16.2215 23.3913 16.3199 23.2683C16.4184 23.1453 16.443 23.0222 16.4922 22.8992C16.9106 21.4718 17.7965 20.3643 18.8547 19.3799C18.2395 19.4292 17.4274 19.3307 16.9598 19.8475C16.2707 20.635 15.9262 21.8655 15.8031 22.8745Z" fill="black"/>
<path d="M9.77369 22.1855C10.3397 22.1855 10.8565 20.7335 11.0288 19.6014H8.71547C8.81391 20.7089 9.23228 22.1855 9.77369 22.1855ZM22.2263 22.1855C22.7677 22.1855 23.1861 20.7089 23.2845 19.6014H20.9712C21.1434 20.7335 21.6602 22.1855 22.2263 22.1855Z" fill="white"/>
<path d="M16 26C11.521 26 9.13385 24.2281 7.90336 22.7515C6.54982 21.1273 6.30372 19.5276 6.30372 19.4538L6.22989 18.9616H25.7701L25.6963 19.4538C25.6963 19.5276 25.4256 21.1273 24.0966 22.7515C22.8661 24.2281 20.479 26 16 26ZM7.23889 19.823C7.65726 21.2257 9.40456 25.1387 16 25.1387C22.5216 25.1387 24.3181 21.2257 24.7365 19.823H7.23889Z" fill="black"/>
<path d="M16 17.266C18.4587 17.266 20.4519 15.2728 20.4519 12.814C20.4519 10.3553 18.4587 8.36212 16 8.36212C13.5413 8.36212 11.5481 10.3553 11.5481 12.814C11.5481 15.2728 13.5413 17.266 16 17.266Z" fill="#00A397"/>
<path d="M16 15.1077C17.2668 15.1077 18.2937 14.0808 18.2937 12.814C18.2937 11.5473 17.2668 10.5204 16 10.5204C14.7333 10.5204 13.7064 11.5473 13.7064 12.814C13.7064 14.0808 14.7333 15.1077 16 15.1077Z" fill="black"/>
<path d="M17.9318 12.8313C18.6359 12.8313 19.2066 12.2605 19.2066 11.5565C19.2066 10.8524 18.6359 10.2817 17.9318 10.2817C17.2278 10.2817 16.6571 10.8524 16.6571 11.5565C16.6571 12.2605 17.2278 12.8313 17.9318 12.8313Z" fill="white"/>
<path d="M16 5.9185C16.0164 5.91843 16.0328 5.9184 16.0492 5.9184C23.5349 5.98117 24.0228 13.2029 24.0228 13.2029C24.0228 13.2029 24.5642 17.1897 21.8325 17.1897H10.1675C7.43576 17.1897 7.97718 13.2029 7.97718 13.2029C7.97718 13.2029 8.4651 5.98158 15.9508 5.91881C15.9672 5.91881 15.9836 5.91843 16 5.9185Z" fill="white"/>
<path d="M16 17.266C18.4587 17.266 20.4519 15.2728 20.4519 12.814C20.4519 10.3553 18.4587 8.36212 16 8.36212C13.5413 8.36212 11.5481 10.3553 11.5481 12.814C11.5481 15.2728 13.5413 17.266 16 17.266Z" fill="#00A397"/>
<path d="M16 15.1077C17.2668 15.1077 18.2937 14.0808 18.2937 12.814C18.2937 11.5473 17.2668 10.5204 16 10.5204C14.7333 10.5204 13.7064 11.5473 13.7064 12.814C13.7064 14.0808 14.7333 15.1077 16 15.1077Z" fill="black"/>
<path d="M17.9318 12.8313C18.6359 12.8313 19.2066 12.2605 19.2066 11.5565C19.2066 10.8524 18.6359 10.2817 17.9318 10.2817C17.2278 10.2817 16.6571 10.8524 16.6571 11.5565C16.6571 12.2605 17.2278 12.8313 17.9318 12.8313Z" fill="white"/>
<path d="M24.4412 13.1783C24.4166 12.7599 23.6537 5.57383 16.0492 5.5H15.9508C8.34637 5.57383 7.58346 12.7599 7.55885 13.1783C7.53424 13.3751 7.26353 15.6146 8.34637 16.8451C8.78935 17.3619 9.40459 17.6327 10.1675 17.6327H21.8326C22.5955 17.6327 23.2107 17.3619 23.6537 16.8451C24.7365 15.6146 24.4658 13.3751 24.4412 13.1783ZM23.0138 16.2791C22.8665 16.4445 22.6838 16.5746 22.4793 16.6598C22.2748 16.745 22.0538 16.7831 21.8326 16.7713H10.1675C9.6753 16.7713 9.28154 16.599 8.98622 16.2791C8.14949 15.3193 8.39559 13.2767 8.39559 13.2767V13.2521C8.4202 12.9568 8.96161 6.38595 16 6.33673C23.0384 6.38595 23.5799 12.9568 23.6045 13.2521V13.2767C23.6783 13.8427 23.7275 15.467 23.0138 16.2791Z" fill="black"/>
</g>
</svg>

<svg xmlns="http://www.w3.org/2000/svg" width="32" height="32" fill="none" viewBox="0 0 32 32">
  <path fill="#00A3FE" d="M3.366 28.634C.911 26.178 0 22.178 0 16S.91 5.822 3.366 3.366C5.822.911 9.822 0 16 0s10.178.91 12.634 3.366C31.089 5.822 32 9.822 32 16s-.91 10.178-3.366 12.634C26.178 31.089 22.178 32 16 32s-10.178-.91-12.634-3.366Z"/>
  <mask id="a" width="32" height="32" x="0" y="0" maskUnits="userSpaceOnUse" style="mask-type:alpha">
    <path fill="#00A3FE" d="M3.366 28.634C.911 26.178 0 22.178 0 16S.91 5.822 3.366 3.366C5.822.911 9.822 0 16 0s10.178.91 12.634 3.366C31.089 5.822 32 9.822 32 16s-.91 10.178-3.366 12.634C26.178 31.089 22.178 32 16 32s-10.178-.91-12.634-3.366Z"/>
  </mask>
  <g mask="url(#a)">
    <path fill="#FF00B7" d="M6.722 19.38h18.556s-.935 6.177-9.278 6.177-9.278-6.177-9.278-6.177Z"/>
    <path fill="#000" d="M10.537 24.351a6.89 6.89 0 0 1-3.766-4.774 124.54 124.54 0 0 1 4.282-.172c1.01-.025 2.24-.222 3.224 0-1.009.516-1.92.91-2.633 1.845-.346.447-.62.945-.812 1.477-.074.172-.468 1.526-.296 1.624Zm5.266-1.476c-.025.196-.025.418.148.516.123.05.27 0 .369-.123.098-.123.123-.246.172-.369.418-1.427 1.304-2.535 2.363-3.52-.616.05-1.428-.048-1.895.468-.69.788-1.034 2.018-1.157 3.027Z"/>
    <path fill="#fff" d="M9.774 22.186c.566 0 1.083-1.453 1.255-2.585H8.715c.099 1.108.517 2.585 1.059 2.585Zm12.452 0c.542 0 .96-1.477 1.059-2.585H20.97c.172 1.133.69 2.585 1.255 2.585Z"/>
    <path fill="#000" d="M16 26c-4.479 0-6.866-1.772-8.097-3.248-1.353-1.625-1.6-3.224-1.6-3.298l-.073-.492h19.54l-.074.492c0 .074-.27 1.673-1.6 3.297C22.867 24.229 20.48 26 16 26Zm-8.761-6.177c.418 1.403 2.166 5.316 8.761 5.316 6.522 0 8.318-3.913 8.736-5.316H7.24Z"/>
    <path fill="#00A397" d="M16 17.266a4.452 4.452 0 1 0 0-8.904 4.452 4.452 0 0 0 0 8.904Z"/>
    <path fill="#000" d="M16 15.108a2.294 2.294 0 1 0 0-4.588 2.294 2.294 0 0 0 0 4.588Z"/>
    <path fill="#fff" d="M17.932 12.831a1.275 1.275 0 1 0 0-2.55 1.275 1.275 0 0 0 0 2.55Z"/>
    <path fill="#fff" d="M16 5.918h.05c7.485.063 7.973 7.285 7.973 7.285s.541 3.987-2.19 3.987H10.166c-2.731 0-2.19-3.987-2.19-3.987s.488-7.221 7.974-7.284H16Z"/>
    <path fill="#00A397" d="M16 17.266a4.452 4.452 0 1 0 0-8.904 4.452 4.452 0 0 0 0 8.904Z"/>
    <path fill="#000" d="M16 15.108a2.294 2.294 0 1 0 0-4.588 2.294 2.294 0 0 0 0 4.588Z"/>
    <path fill="#fff" d="M17.932 12.831a1.275 1.275 0 1 0 0-2.55 1.275 1.275 0 0 0 0 2.55Z"/>
    <path fill="#000" d="M24.441 13.178c-.024-.418-.787-7.604-8.392-7.678h-.098c-7.605.074-8.368 7.26-8.392 7.678-.025.197-.296 2.437.787 3.667.443.517 1.059.788 1.822.788h11.665c.762 0 1.378-.271 1.82-.788 1.084-1.23.813-3.47.788-3.667Zm-1.427 3.101a1.477 1.477 0 0 1-1.181.492H10.168c-.493 0-.886-.172-1.182-.492-.837-.96-.59-3.002-.59-3.002v-.025c.024-.295.566-6.866 7.604-6.915 7.038.049 7.58 6.62 7.604 6.915v.025c.074.566.123 2.19-.59 3.002Z"/>
  </g>
</svg>
